dist/assets/img/instagram_icon.svg

<svg width="30" height="30" viewBox="0 0 30 30" fill="none" xmlns="http://www.w3.org/2000/svg">
<path d="M15 30C6.717 30 0 23.283 0 15C0 6.717 6.717 0 15 0C23.283 0 30 6.717 30 15C30 23.283 23.283 30 15 30Z" fill="white"/>
<path d="M14.9998 6.60599C17.7328 6.60599 18.0568 6.61499 19.1368 6.66599C20.1358 6.71099 20.6788 6.87899 21.0388 7.01999C21.5158 7.20599 21.8578 7.42799 22.2148 7.78499C22.5718 8.14199 22.7938 8.48399 22.9798 8.96099C23.1208 9.32099 23.2858 9.86399 23.3338 10.863C23.3818 11.943 23.3938 12.267 23.3938 15C23.3938 17.733 23.3848 18.057 23.3338 19.137C23.2888 20.136 23.1208 20.679 22.9798 21.039C22.7938 21.516 22.5718 21.858 22.2148 22.215C21.8578 22.572 21.5158 22.794 21.0388 22.98C20.6788 23.121 20.1358 23.286 19.1368 23.334C18.0568 23.382 17.7328 23.394 14.9998 23.394C12.2668 23.394 11.9428 23.385 10.8628 23.334C9.86381 23.289 9.32081 23.121 8.96081 22.98C8.48381 22.794 8.14181 22.572 7.78481 22.215C7.42781 21.858 7.20581 21.516 7.01981 21.039C6.87881 20.679 6.71381 20.136 6.66581 19.137C6.61781 18.057 6.60581 17.733 6.60581 15C6.60581 12.267 6.61481 11.943 6.66581 10.863C6.71081 9.86399 6.87881 9.32099 7.01981 8.96099C7.20581 8.48399 7.42781 8.14199 7.78481 7.78499C8.14181 7.42799 8.48381 7.20599 8.96081 7.01999C9.32081 6.87899 9.86381 6.71399 10.8628 6.66599C11.9428 6.61499 12.2668 6.60599 14.9998 6.60599ZM14.9998 4.76099C12.2188 4.76099 11.8708 4.77299 10.7788 4.82399C9.68981 4.87499 8.94581 5.04599 8.29181 5.30099C7.61981 5.55899 7.04681 5.90999 6.47981 6.47999C5.90981 7.04999 5.56181 7.61999 5.29781 8.29499C5.04581 8.94599 4.87181 9.68999 4.82081 10.782C4.76981 11.874 4.75781 12.222 4.75781 15.003C4.75781 17.784 4.76981 18.132 4.82081 19.224C4.87181 20.313 5.04281 21.057 5.29781 21.711C5.55881 22.38 5.90981 22.953 6.47981 23.52C7.04981 24.09 7.61981 24.438 8.29481 24.702C8.94581 24.954 9.68981 25.128 10.7818 25.179C11.8738 25.23 12.2218 25.242 15.0028 25.242C17.7838 25.242 18.1318 25.23 19.2238 25.179C20.3128 25.128 21.0568 24.957 21.7108 24.702C22.3798 24.441 22.9528 24.09 23.5198 23.52C24.0898 22.95 24.4378 22.38 24.7018 21.705C24.9538 21.054 25.1278 20.31 25.1788 19.218C25.2298 18.126 25.2418 17.778 25.2418 14.997C25.2418 12.216 25.2298 11.868 25.1788 10.776C25.1278 9.68699 24.9568 8.94299 24.7018 8.28899C24.4408 7.61999 24.0898 7.04699 23.5198 6.47999C22.9498 5.90999 22.3798 5.56199 21.7048 5.29799C21.0538 5.04599 20.3098 4.87199 19.2178 4.82099C18.1288 4.77299 17.7808 4.76099 14.9998 4.76099Z" fill="#969696"/>
<path d="M15.0002 9.74097C12.0962 9.74097 9.74121 12.096 9.74121 15C9.74121 17.904 12.0962 20.259 15.0002 20.259C17.9042 20.259 20.2592 17.904 20.2592 15C20.2592 12.096 17.9042 9.74097 15.0002 9.74097ZM15.0002 18.414C13.1162 18.414 11.5862 16.887 11.5862 15C11.5862 13.113 13.1162 11.586 15.0002 11.586C16.8842 11.586 18.4142 13.113 18.4142 15C18.4142 16.887 16.8842 18.414 15.0002 18.414Z" fill="#969696"/>
<path d="M20.4663 10.764C21.1456 10.764 21.6963 10.2133 21.6963 9.53396C21.6963 8.85464 21.1456 8.30396 20.4663 8.30396C19.787 8.30396 19.2363 8.85464 19.2363 9.53396C19.2363 10.2133 19.787 10.764 20.4663 10.764Z" fill="#969696"/>
</svg>

<svg width="30" height="30" fill="none" xmlns="http://www.w3.org/2000/svg"><path d="M15 30C6.717 30 0 23.283 0 15 0 6.717 6.717 0 15 0c8.283 0 15 6.717 15 15 0 8.283-6.717 15-15 15z" fill="#fff"/><path d="M15 6.606c2.733 0 3.057.009 4.137.06.999.045 1.542.213 1.902.354.477.186.819.408 1.176.765.357.357.579.699.765 1.176.14.36.306.903.354 1.902.048 1.08.06 1.404.06 4.137 0 2.733-.01 3.057-.06 4.137-.045.999-.213 1.542-.354 1.902a3.182 3.182 0 01-.765 1.176 3.182 3.182 0 01-1.176.765c-.36.141-.903.306-1.902.354-1.08.048-1.404.06-4.137.06-2.733 0-3.057-.009-4.137-.06-1-.045-1.542-.213-1.902-.354a3.182 3.182 0 01-1.176-.765 3.182 3.182 0 01-.765-1.176c-.141-.36-.306-.903-.354-1.902-.048-1.08-.06-1.404-.06-4.137 0-2.733.009-3.057.06-4.137.045-.999.213-1.542.354-1.902.186-.477.408-.819.765-1.176A3.182 3.182 0 018.96 7.02c.36-.141.903-.306 1.902-.354 1.08-.051 1.404-.06 4.137-.06zm0-1.845c-2.781 0-3.13.012-4.221.063-1.09.051-1.833.222-2.487.477A4.943 4.943 0 006.48 6.48a5.04 5.04 0 00-1.182 1.815c-.252.651-.426 1.395-.477 2.487-.051 1.092-.063 1.44-.063 4.221s.012 3.129.063 4.221c.05 1.089.222 1.833.477 2.487A5.005 5.005 0 006.48 23.52c.57.57 1.14.918 1.815 1.182.65.252 1.395.426 2.487.477 1.092.051 1.44.063 4.22.063 2.782 0 3.13-.012 4.222-.063 1.089-.051 1.833-.222 2.487-.477a5.005 5.005 0 001.809-1.182 5.04 5.04 0 001.182-1.815c.252-.651.426-1.395.477-2.487.05-1.092.063-1.44.063-4.221s-.012-3.129-.063-4.221c-.051-1.089-.222-1.833-.477-2.487A5.005 5.005 0 0023.52 6.48a5.04 5.04 0 00-1.815-1.182c-.651-.252-1.395-.426-2.487-.477-1.09-.048-1.437-.06-4.218-.06z" fill="#969696"/><path d="M15 9.741a5.26 5.26 0 10.001 10.52 5.26 5.26 0 000-10.52zm0 8.673a3.414 3.414 0 110-6.828 3.414 3.414 0 010 6.828zm5.466-7.65a1.23 1.23 0 100-2.46 1.23 1.23 0 000 2.46z" fill="#969696"/></svg>
